X:170
T:The Noisy Curlew
Z:robin.beech@mcgill.ca
S:Victoria Bar, Glasgow
R:reel
M:4/4
L:1/8
K:D
D2(3FFF D2(3GGG | D2(3FFF EGFE | D2 (3FFF  ABde | fdAG FGEF |
D2(3FFF D2(3GGG | D2(3FFF EGFE | D2(3FFF ABde |1 fdAG FED2 :|2 fdAG FEDg |:
fgaf g2ag | fgaf gfeg | fgaf g2ag | fdAG FEDg |
fgaf g2ag | fgaf gfeg | fdAF G2ag | fdAG FEDg :|
